X:6007
T:Four Pound Cheque
T:42 Pound Check, The
R:Polka
C:Trad.
N:Variant of Dennis Murphy Polka
O:Ireland
M:2/4
L:1/8
Q:1/8=240
K:D
"D"Ad Bd/B/|AD FA|"Em"GE BE|"D"A>G FD|Ad Bd/B/|AD FA|"A"GE A>G|"D"FD D2:|
|:"D"Ad fe/f/|"Em"gf ed|"A"cA eA|e>d cA|"D"Ad fe/f/|"Em"gf e>d|"A7"cA Bc|"D"d2 d2:|

